packages/foundations/assets/icons/functional/images/maps/parking_24.svg

<svg width="24" height="24" viewBox="0 0 24 24" fill="none" xmlns="http://www.w3.org/2000/svg">
<g clip-path="url(#clip0_186_98)">
<path fill-rule="evenodd" clip-rule="evenodd" d="M19.5 2C20.8807 2 22 3.11929 22 4.5V19.5C22 20.8807 20.8807 22 19.5 22H4.5C3.11929 22 2 20.8807 2 19.5V4.5C2 3.11929 3.11929 2 4.5 2H19.5ZM19.5 4C14.5001 3.99733 9.50012 3.99733 4.5 4C4.25454 4 4.00016 4.19394 4 4.5C3.99733 9.49988 3.99733 14.4999 4 19.5C4 19.7455 4.20452 19.9998 4.5 20C9.49988 20.0027 14.4999 20.0027 19.5 20C19.7455 20 19.9998 19.7993 20 19.5C20.0027 14.5001 20.0027 9.50012 20 4.5C20 4.25454 19.8071 4.00016 19.5 4ZM11.0068 8.40532V11.5713C11.7472 11.626 12.2139 11.6533 12.4068 11.6533C13.0415 11.6533 13.4988 11.525 13.7788 11.2683C14.0588 11.0117 14.1988 10.5847 14.1988 9.98732C14.1988 9.48125 14.1029 9.10422 13.9112 8.85626C13.6379 8.55563 13.264 8.40682 12.7895 8.40981L11.0068 8.40532ZM12.7708 6.86532C13.9095 6.86532 14.7798 7.12432 15.3818 7.64232C15.9838 8.16032 16.2848 8.92798 16.2848 9.94532C16.2848 10.9813 15.9721 11.7677 15.3468 12.3043C14.7696 12.7997 13.8627 13.1093 12.5888 13.1093C12.182 13.1202 11.6546 13.0872 11.0068 13.0103L11.0068 15.9933C11.0068 16.5732 10.5367 17.0433 9.95679 17.0433C9.41555 17.0433 8.90679 16.6123 8.90679 15.9933C8.90679 15.1621 8.90679 12.4527 8.90679 7.86532C8.90679 7.35248 9.32098 6.86664 9.90679 6.86532C10.8614 6.86316 11.8161 6.86316 12.7708 6.86532Z" fill="#1A1C1F"/>
</g>
<defs>
<clipPath id="clip0_186_98">
<rect width="24" height="24" fill="white"/>
</clipPath>
</defs>
</svg>

<svg xmlns="http://www.w3.org/2000/svg" width="24" height="24" fill="none"><g clip-path="url(#a)"><path fill="#1A1C1F" fill-rule="evenodd" d="M19.5 2A2.5 2.5 0 0 1 22 4.5v15a2.5 2.5 0 0 1-2.5 2.5h-15A2.5 2.5 0 0 1 2 19.5v-15A2.5 2.5 0 0 1 4.5 2zm0 2q-7.5-.005-15 0a.5.5 0 0 0-.5.5q-.005 7.5 0 15c0 .245.205.5.5.5q7.5.005 15 0c.245 0 .5-.2.5-.5q.005-7.5 0-15a.5.5 0 0 0-.5-.5m-8.493 4.405v3.166q1.11.082 1.4.082.951 0 1.372-.385.42-.384.42-1.28 0-.76-.288-1.132-.41-.451-1.121-.446zm1.764-1.54q1.708 0 2.61.777.904.777.904 2.303 0 1.554-.938 2.36c-.577.495-1.484.804-2.758.804q-.61.016-1.582-.099v2.983a1.05 1.05 0 0 1-2.1 0V7.865c0-.513.414-.998 1-1q1.432-.003 2.864 0" clip-rule="evenodd"/></g><defs><clipPath id="a"><path fill="#fff" d="M0 0h24v24H0z"/></clipPath></defs></svg>
